src/resources/icons/playlist-add-already-added.svg

<svg width="20" height="16" viewBox="0 0 20 16" fill="none" aria-hidden="true" xmlns="http://www.w3.org/2000/svg">
    <title>Add or remove from playlist</title>
    <path
        d="M1 3V13C1 13.5304 1.21071 14.0391 1.58579 14.4142C1.96086 14.7893 2.46957 15 3 15H17C17.5304 15 18.0391 14.7893 18.4142 14.4142C18.7893 14.0391 19 13.5304 19 13V5C19 4.46957 18.7893 3.96086 18.4142 3.58579C18.0391 3.21071 17.5304 3 17 3H11L9 1H3C2.46957 1 1.96086 1.21071 1.58579 1.58579C1.21071 1.96086 1 2.46957 1 3Z"
        fill="#00217D"/>
    <path
        d="M7 9C7 9 10.6569 9 13 9M1 13V3C1 2.46957 1.21071 1.96086 1.58579 1.58579C1.96086 1.21071 2.46957 1 3 1H9L11 3H17C17.5304 3 18.0391 3.21071 18.4142 3.58579C18.7893 3.96086 19 4.46957 19 5V13C19 13.5304 18.7893 14.0391 18.4142 14.4142C18.0391 14.7893 17.5304 15 17 15H3C2.46957 15 1.96086 14.7893 1.58579 14.4142C1.21071 14.0391 1 13.5304 1 13Z"
        stroke="#00217D" stroke-width="2" stroke-linecap="round" stroke-linejoin="round"/>
    <path d="M13 8.5C10.6569 8.5 9.34315 8.5 7 8.5" stroke="white" stroke-width="2" stroke-linecap="round"
          stroke-linejoin="round"/>
</svg>

<svg width="20" height="16" fill="none" aria-hidden="true" xmlns="http://www.w3.org/2000/svg"><path d="M1 3v10a2 2 0 0 0 2 2h14a2 2 0 0 0 2-2V5a2 2 0 0 0-2-2h-6L9 1H3a2 2 0 0 0-2 2Z" fill="#00217D"/><path d="M7 9h6M1 13V3a2 2 0 0 1 2-2h6l2 2h6a2 2 0 0 1 2 2v8a2 2 0 0 1-2 2H3a2 2 0 0 1-2-2Z" stroke="#00217D" stroke-width="2" stroke-linecap="round" stroke-linejoin="round"/><path d="M13 8.5H7" stroke="#fff" stroke-width="2" stroke-linecap="round" stroke-linejoin="round"/></svg>
